X: 3276
T: The DRAGOON
%R: jig
B: James Kerr "Merry Melodies" v.3 p.30 #276
Z: 2016 John Chambers <jc:trillian.mit.edu>
M: 6/8
L: 1/8
K: G
|:\
D3  G3  | AGA Bcd | D3  G3  | EAG FED |\
D3  G3  | AGA Bcd | efg dcB | ABG FED :|
|:\
d3  g3  | ege dBG | d3  g3  | eag fed |\
gbg afa | ege dBd | efg dcB | ABG FED :|

%%sep 1 1 500
%%sep 1 1 500

